X:1
T: Jenny Bell's
M: 4/4
L: 1/8
K:Gmaj
(3sDEFs|G2g2 edcB|d2G2 GFG2|A2D2 F2D2|G2B2 d^cd2|G2g2 edcB|d2G2 GFG2|D2FA d3F|A2G2G2:|
Bc|d^cde d3d|dgBd GBD2|AGAB c3c|ceAc FAD2|d^cde d3d|dgBd GBD2|D2FA d3F|A2G2G2:|
g2 f2 e2 d2|c2 B2 A2 G2 |GBdg g2 f2 |FAce e2 d2|g2 f2 e2 d2|c2 B2 A2 G2 |D2 FA d2 F2|A2 G2 G2 :|
